images/vk.svg

<svg width="25" height="14" viewBox="0 0 25 14" fill="none" xmlns="http://www.w3.org/2000/svg">
<path fill-rule="evenodd" clip-rule="evenodd" d="M24.1164 0.948C24.2824 0.402 24.1164 0 23.3214 0H20.6964C20.0284 0 19.7204 0.347 19.5534 0.73C19.5534 0.73 18.2184 3.926 16.3274 6.002C15.7154 6.604 15.4374 6.795 15.1034 6.795C14.9364 6.795 14.6854 6.604 14.6854 6.057V0.948C14.6854 0.292 14.5014 0 13.9454 0H9.81738C9.40038 0 9.14938 0.304 9.14938 0.593C9.14938 1.214 10.0954 1.358 10.1924 3.106V6.904C10.1924 7.737 10.0394 7.888 9.70538 7.888C8.81538 7.888 6.65038 4.677 5.36538 1.003C5.11638 0.288 4.86438 0 4.19338 0H1.56638C0.816382 0 0.666382 0.347 0.666382 0.73C0.666382 1.412 1.55638 4.8 4.81138 9.281C6.98138 12.341 10.0364 14 12.8194 14C14.4884 14 14.6944 13.632 14.6944 12.997V10.684C14.6944 9.947 14.8524 9.8 15.3814 9.8C15.7714 9.8 16.4384 9.992 17.9964 11.467C19.7764 13.216 20.0694 14 21.0714 14H23.6964C24.4464 14 24.8224 13.632 24.6064 12.904C24.3684 12.18 23.5184 11.129 22.3914 9.882C21.7794 9.172 20.8614 8.407 20.5824 8.024C20.1934 7.533 20.3044 7.314 20.5824 6.877C20.5824 6.877 23.7824 2.451 24.1154 0.948H24.1164Z" fill="#83B3D3"/>
</svg>

<svg width="25" height="14" fill="none" xmlns="http://www.w3.org/2000/svg"><path fill-rule="evenodd" clip-rule="evenodd" d="M24.12.95c.16-.55 0-.95-.8-.95H20.7c-.67 0-.98.35-1.15.73 0 0-1.33 3.2-3.22 5.27-.61.6-.9.8-1.23.8-.16 0-.41-.2-.41-.74V.95c0-.66-.19-.95-.74-.95H9.82c-.42 0-.67.3-.67.6 0 .61.95.76 1.04 2.5v3.8c0 .84-.15.99-.48.99-.9 0-3.06-3.21-4.34-6.89-.25-.71-.5-1-1.18-1H1.57c-.75 0-.9.35-.9.73 0 .68.89 4.07 4.14 8.55 2.17 3.06 5.23 4.72 8 4.72 1.68 0 1.88-.37 1.88-1v-2.32c0-.73.16-.88.7-.88.38 0 1.05.2 2.6 1.67 1.79 1.75 2.08 2.53 3.08 2.53h2.63c.75 0 1.12-.37.9-1.1-.23-.72-1.08-1.77-2.2-3.02-.62-.7-1.54-1.47-1.82-1.86-.39-.49-.28-.7 0-1.14 0 0 3.2-4.43 3.54-5.93Z" fill="#83B3D3"/></svg>
